X:232
T:Waltz. CJF.232
R:Waltz
S:C.J.Fox MS, 1829/33, Beverley,E.Yorks.
N:In the stave is “C J Fox 1832″ at the end of the tune. The
N:8vo mark has an extension line covering the second
N:section, except for the last 2 bars. The section is marked
N:”for” (forte). – PJH.
B:Kidson Coll.Mitchell Lib.M1805
O:England
A:East Yorkshire
Z:vmp.P J Headford 2000 & 2008
M:3/4
L:1/8
Q:3/4=60
K:D
“p”fg|a2a2a2|a2a2a2|”>”b4a2|agg2e”p”f|\
g2g2g2|g2g2g2|”>”a4g2|gff2:|!
|:”8vo for”A>A|Ace2AA|Adf2ed|c2c2c2|d2-d2FG|\
A2A2d2|(BAGFED)|c2c2c2|d4:|!
|:A2|dfdAFA|dfdAFA|egecAc|dfa^g=ge|\
dfdAFA|dfdAFA|egecAc|d4:|!
|:” for”a/a>a|_b3a/a>a|_b3a/a>a|^g2g2g2|\
a4z2|dfdAFA|dfa2a2|gecABc|d4:|

